talent/images/icons/phone-call.svg

<svg width="20" height="20" viewBox="0 0 20 20" fill="none" xmlns="http://www.w3.org/2000/svg">
<path d="M19.5818 15.3374L16.858 12.6231C16.3199 12.0945 15.458 12.0945 14.9199 12.6231L13.1913 14.3945C13.0151 14.5469 12.758 14.5469 12.5818 14.3945C11.3008 13.3707 10.0722 12.285 8.90558 11.1326C7.73891 9.97545 6.64367 8.7564 5.6151 7.47545C5.4532 7.30402 5.4532 7.03736 5.6151 6.86593L7.42463 5.09926C7.9532 4.55164 7.9532 3.68497 7.42463 3.13736L4.70082 0.413546C4.14844 -0.100739 3.29129 -0.100739 2.73891 0.413546L0.500817 2.66117C0.500817 2.66117 0.400817 2.7564 0.367484 2.7945C-0.894421 4.30878 1.11987 9.11355 6.00558 13.9707C9.56272 17.5469 13.5818 19.9421 15.9818 19.9421C16.3818 19.9802 16.8008 19.9326 17.1342 19.7088C17.2008 19.6612 17.3865 19.4945 17.3865 19.4945L19.5818 17.2897C20.1151 16.7469 20.1151 15.8802 19.5818 15.3374Z" fill="#AEBBCD"/>
</svg>

<svg width="20" height="20" fill="none" xmlns="http://www.w3.org/2000/svg"><path d="M19.582 15.337l-2.724-2.714a1.383 1.383 0 00-1.938 0l-1.729 1.772a.463.463 0 01-.61 0 46.814 46.814 0 01-3.675-3.262 43.532 43.532 0 01-3.29-3.658.443.443 0 010-.61L7.424 5.1a1.412 1.412 0 000-1.962L4.7.414a1.44 1.44 0 00-1.962 0L.5 2.66s-.1.095-.134.134c-1.26 1.515.754 6.32 5.64 11.176 3.557 3.576 7.576 5.971 9.976 5.971.4.038.819-.01 1.152-.233.067-.048.253-.215.253-.215l2.195-2.204a1.391 1.391 0 000-1.953z" fill="#AEBBCD"/></svg>
